X: 14191
T: Frost Is All Over, The
R: jig
M: 6/8
K: Dmajor
c|:def edB|AFA E2D|AFA AFA|Bee edB|
def edB|AFA E2D|AFA AFA|Bdd d2B:|
|:AFF dFF|AFD E2D|AFA AFA|Bee edB|
AFF dFF|AFD E2D|AFA AFA|1 Bee e2B:|2 Bdd d2e||
|:faa afe|fbb bag|faa agf|gfg e2g|
faa afe|fbb bag|1 fef d2f|edd d2e:|2 f2e fdf|edd d2||

